src/Pure/16/symbolic/actions/go-previous-context.svg

<?xml version="1.0" encoding="UTF-8" standalone="no"?>
<svg
   version="1.1"
   viewBox="0 0 16 16"
   id="svg1"
   sodipodi:docname="go-previous-context.svg"
   inkscape:version="1.4.2 (ebf0e940d0, 2025-05-08)"
   xmlns:inkscape="http://www.inkscape.org/namespaces/inkscape"
   xmlns:sodipodi="http://sodipodi.sourceforge.net/DTD/sodipodi-0.dtd"
   xmlns="http://www.w3.org/2000/svg"
   xmlns:svg="http://www.w3.org/2000/svg">
  <sodipodi:namedview
     id="namedview1"
     pagecolor="#ffffff"
     bordercolor="#000000"
     borderopacity="0.25"
     inkscape:showpageshadow="2"
     inkscape:pageopacity="0.0"
     inkscape:pagecheckerboard="0"
     inkscape:deskcolor="#d1d1d1"
     inkscape:zoom="49.6875"
     inkscape:cx="8"
     inkscape:cy="8"
     inkscape:window-width="1920"
     inkscape:window-height="1010"
     inkscape:window-x="0"
     inkscape:window-y="0"
     inkscape:window-maximized="1"
     inkscape:current-layer="svg1" />
  <defs
     id="defs1">
    <style
       id="current-color-scheme"
       type="text/css">.ColorScheme-Text {
        color:#363636;
      }</style>
  </defs>
  <path
     id="path1"
     style="fill:currentColor"
     class="ColorScheme-Text"
     d="M 4.1113281 1.7773438 L 1 8 L 4.1113281 14.222656 L 15 14.222656 L 15 1.7773438 L 4.1113281 1.7773438 z M 8.3867188 4.3339844 L 8.3867188 4.859375 C 7.7549687 4.859375 7.7402344 5.0717469 7.7402344 5.8417969 L 7.7402344 6.7460938 C 7.7402344 7.1154038 7.6301363 7.6646981 7.0976562 7.8925781 C 7.6301362 8.1204481 7.7402344 8.6697525 7.7402344 9.0390625 L 7.7402344 9.9355469 C 7.7402344 10.705597 7.7548827 10.917969 8.3867188 10.917969 L 8.3867188 11.445312 C 7.4390788 11.445312 7.0351562 11.131518 7.0351562 10.330078 L 7.0351562 9.2421875 C 7.0351562 8.7471575 6.998809 8.1757812 6.484375 8.1757812 L 6.2226562 8.1757812 L 6.2226562 7.6015625 L 6.484375 7.6015625 C 6.998815 7.6015625 7.0351662 7.0301863 7.0351562 6.5351562 L 7.0351562 5.4472656 C 7.0351562 4.6457856 7.4390388 4.3339844 8.3867188 4.3339844 z M 11.175781 4.3339844 C 12.123421 4.3339844 12.521484 4.6457756 12.521484 5.4472656 L 12.521484 6.5351562 C 12.521484 7.0301862 12.53906 7.6015625 13.0625 7.6015625 L 13.333984 7.6015625 L 13.333984 8.1757812 L 13.0625 8.1757812 C 12.53906 8.1757812 12.521484 8.7471575 12.521484 9.2421875 L 12.521484 10.330078 C 12.521484 11.131558 12.123411 11.445313 11.175781 11.445312 L 11.175781 10.917969 C 11.815511 10.917969 11.816406 10.705597 11.816406 9.9355469 L 11.816406 9.0390625 C 11.816406 8.6697625 11.926504 8.1204581 12.458984 7.8925781 C 11.926504 7.6647081 11.816406 7.1154137 11.816406 6.7460938 L 11.816406 5.8417969 C 11.816406 5.0717469 11.8075 4.859375 11.175781 4.859375 L 11.175781 4.3339844 z " />
</svg>

<svg version="1.1" viewBox="0 0 16 16" xmlns="http://www.w3.org/2000/svg">
 <defs>
  <style id="current-color-scheme" type="text/css">.ColorScheme-Text {
        color:#363636;
      }</style>
 </defs>
 <path d="m4.1113 1.7773-3.1113 6.2227 3.1113 6.2227h10.889v-12.445h-10.889zm4.2754 2.5566v0.52539c-0.63175 0-0.64648 0.21237-0.64648 0.98242v0.9043c0 0.36931-0.1101 0.91862-0.64258 1.1465 0.53248 0.22787 0.64258 0.77719 0.64258 1.1465v0.89648c0 0.77005 0.014644 0.98242 0.64648 0.98242v0.52734c-0.94764 0-1.3516-0.31376-1.3516-1.1152v-1.0879c0-0.49503-0.036346-1.0664-0.55078-1.0664h-0.26172v-0.57422h0.26172c0.51444 0 0.55079-0.57137 0.55078-1.0664v-1.0879c0-0.80148 0.40392-1.1133 1.3516-1.1133zm2.7891 0c0.94764 0 1.3457 0.31181 1.3457 1.1133v1.0879c0 0.49503 0.01758 1.0664 0.54102 1.0664h0.27148v0.57422h-0.27148c-0.52344 0-0.54102 0.57137-0.54102 1.0664v1.0879c0 0.80148-0.39807 1.1152-1.3457 1.1152v-0.52734c0.63973 0 0.64062-0.21237 0.64062-0.98242v-0.89648c0-0.3693 0.1101-0.91862 0.64258-1.1465-0.53248-0.22787-0.64258-0.77718-0.64258-1.1465v-0.9043c0-0.77005-0.008901-0.98242-0.64062-0.98242v-0.52539z" color="#363636" fill="currentColor"/>
</svg>
